X:1
T:Canon in D
T:Canon in D
%%score { ( 1 4 ) | ( 2 3 ) }
L:1/8
Q:1/4=80
M:4/4
K:D
V:1 treble nm="Piano" snm="Pno"
V:4 treble 
V:2 bass 
V:3 bass 
V:1
 z"^(Strings)" FAd z EAc | z DFB z CFA | z B,DG z A,DF | z B,DG z CEA || %4
"_Legato expressivo"!mp!"^A""^(Piano)" (f4 e4 | d4 c4) | (B4 A4 | B4 c4) | ([df]4 [ce]4 | %9
 [Bd]4 [Ac]4) | ([GB]4 [FA]4 | [GB]4 [Ec]4) ||"^B" (d2 F2 A2 G2) | (F2 D2 F2 E2) | (D2 B,2 D2 A2) | %15
 (G2 d2{/de} d3 c) ||"^C"!mf!"_legato" (dcdD CAEF | D"_cresc."dcB cfab) |!f! (gfeg fedc | %19
"_dim." BAGF EGFE) ||"^D"!mf! (DEFG AEAG | FBAG AGFE) | (DB,Bc dcBA | GFEB!<(! ABAG)!<)! || %24
"^E"!mf! (af/g/) (af/g/) .a/(A/B/c/ d/e/f/g/) |!mp! (fd/e/) .f(F/G/ A/B/A/G/ A/F/G/A/) | %26
 (GB/A/ GF/E/) (F/E/D/E/ F/G/A/B/) | (GB/A/!<(! Bc/d/) (A/B/c/d/ e/f/g/a/)!<)! || %28
"^F"!mf! (fd/e/ fe/d/) .e/!>(!(c/d/e/ f/e/d/c/)!>)! |!mp! (dB/c/) .d(D/E/ F/G/F/E/ F/d/c/d/) | %30
 (Bd/c/ BA/G/) (A/G/F/G/ A/B/c/d/) | (Bd/c/!<(! dc/B/) (c/d/e/d/ c/d/B/c/)!<)! || %32
 z2!mf!"^G" !tenuto![Adf] z [Ace]4 | z2!mp! !tenuto![Bd] z [Adf]4 |!mf! ([dgb]4 [dfa]4 | %35
 [dgb]4 [eac']4) ||"^H" [fad'] z !tenuto![FAd] z [EAc]4 | z2 !tenuto![DFB] z [Ad]4 | %38
 [GBd]4 z2 ([FAd]2 | [GBd]2 [Bdg]2 [Ace]2 [cea]2) ||"^I" (af/g/) (af/g/) .a/(A/B/c/ d/e/f/g/) | %41
 (fd/e/) .f(F/G/ A/B/A/G/ A/F/G/A/) | (GB/A/ GF/E/) (F/E/D/E/ F/G/A/B/) | %43
 (GB/A/!<(! Bc/d/) (A/B/c/d/ e/f/g/a/)!<)! ||"^J"!f! (fd/e/ fe/d/) .e/(c/d/e/ f/e/d/c/) | %45
!mf! (dB/c/) .d(D/E/ F/G/F/E/ F/d/c/d/) | (Bd/c/ BA/G/) (A/G/F/G/ A/B/c/d/) | %47
 (Bd/c/!<(! dc/B/) (c/d/e/d/ c/d/B/c/)!<)! ||"^K"!f! (f3 f' f'g'f'e') | (d'3 d' d'e'd'c') | %50
 (b4 d'4) | (d'=c'bc' a3 a) ||"^L" (a3 a' a'b'a'g') | (f'3 f' f'g'f'e') | (d'=c'bc' d'3 d') | %55
 (b2 d'2 ^c'3 c') ||"^M" [Adf]2 [FAd]2 [EAc]2 [Ace]2 | [FBd]2 [DFB]2 [CFA]2 [FAc]2 | %58
 [DGB]2 [B,DG]2 [A,DF]2 [FAd]2 | [GBd]2 [Bdg]2 [Ace]2 [cea]2 ||"^N" [fad'f']4 [eac'e']4 | %61
 [dfbd']4 [cfac']4 | [Bdgb]4 [Adfa]4 | [Bdgb]4 [e-a]2 [eg]2 | [dfad']8 |] %65
V:2
 D4 A,4 | B,4 F,4 | G,4 D,4 | G,4 A,4 || (DFAF) (A,CEC) | (B,DFD) (F,A,CA,) | (G,B,DB,) (D,A,DA,) | %7
 (G,B,DB,) (A,CEC) | (DFAF) (A,CEC) | (B,DFD) (F,A,CA,) | (G,B,DB,) (D,A,DA,) | %11
 (G,B,DB,) (A,CEC) || (D,F,A,F,) (A,,E,A,E,) | (B,,D,F,D,) (F,,C,F,C,) | %14
 (G,,B,,D,B,,) (D,,A,,D,A,,) | (G,,D,G,D,) (A,,E,A,E,) || ((D,A,DA,)) ((A,,E,A,E,)) | %17
 ((B,,F,B,F,)) ((F,,C,F,C,)) | G,,4 [D,,D,]4 | ((G,,D,G,D,)) ((A,,E,A,E,)) || %20
 ((D,A,DA,)) ((A,,E,A,E,)) | ((B,,F,B,F,)) ((F,,C,F,C,)) | ((G,,D,G,D,)) ((D,,A,,D,A,,)) | %23
 ((G,,D,G,D,)) ((A,,E,A,E,)) || (D,A,DA,) (A,,E,A,E,) | (B,,F,B,F,) (F,,C,F,C,) | %26
 (G,,D,G,D,) (D,,A,,D,A,,) | (G,,D,G,D,) (A,,E,A,E,) || ((D,A,DA,)) ((A,,E,A,E,)) | %29
 ((B,,F,B,F,)) ((F,,C,F,C,)) | ((G,,D,G,D,)) ((D,,A,,D,A,,)) | ((G,,D,G,D,)) ((A,,E,A,E,)) || %32
 (D,F,A,D) (A,CEC) | (B,DFD) (F,A,DF) | (G,B,DB,) (D,F,A,D) | (G,B,DB,) (A,CEC) || %36
 (D,F,A,F,) (A,,C,E,A,) | (B,,D,F,B,) (F,A,DA,) | (G,B,DB,) (D,F,A,D) | (G,B,DG) (A,CEA) || %40
 (D,A,DA,) (A,,E,A,E,) | (B,,F,B,F,) (F,,C,F,C,) | (G,,D,G,D,) (D,,A,,D,A,,) | %43
 (G,,D,G,D,) (A,,E,A,E,) || ((D,A,DA,)) ((A,,E,A,E,)) | ((B,,F,B,F,)) ((F,,C,F,C,)) | %46
 ((G,,D,G,D,)) ((D,,A,,D,A,,)) | ((G,,D,G,D,)) ((A,,E,A,E,)) || (DFAF) (A,CEA) | (B,DFD) (F,A,CF) | %50
 (G,B,DB,) (D,F,A,D) | (G,B,DG) (A,CEA) || (DFAF) (A,CEA) | (B,DFD) (F,A,CF) | %54
 (G,B,DB,) (D,F,A,D) | (G,B,DG) (A,^CEA) || D,4 A,,4 | B,,4 F,,4 | G,,4 D,,4 | G,,4 A,,4 || %60
 (D,F,A,D) (A,,C,E,A,) | (B,,D,F,B,) (F,,A,,C,F,) | (G,,B,,D,G,) (D,,F,,A,,D,) | %63
 (G,,B,,D,G,) (A,,C,E,A,) | [D,D]8 |] %65
V:3
 x8 | x8 | x8 | x8 || D4 A,4 | B,4 F,4 | G,4 D,4 | G,4 A,4 | D4 A,4 | B,4 F,4 | G,4 D,4 | %11
 G,4 A,4 || D,4 A,,4 | B,,4 F,,4 | G,,4 D,,4 | G,,4 A,,4 || D,4 A,,4 | B,,4 F,,4 | x8 | %19
 G,,4 A,,4 || D,4 A,,4 | B,,4 F,,4 | G,,4 D,,4 | G,,4 A,,4 || D,4 A,,4 | B,,4 F,,4 | G,,4 D,,4 | %27
 G,,4 A,,4 || D,4 A,,4 | B,,4 F,,4 | G,,4 D,,4 | G,,4 A,,4 || x8 | x8 | x8 | x8 || x8 | x8 | x8 | %39
 x8 || D,4 A,,4 | B,,4 F,,4 | G,,4 D,,4 | G,,4 A,,4 || D,4 A,,4 | B,,4 F,,4 | G,,4 D,,4 | %47
 G,,4 A,,4 || D4 A,4 | B,4 F,4 | G,4 D,4 | G,4 A,4 || D4 A,4 | B,4 F,4 | G,4 D,4 | G,4 A,4 || x8 | %57
 x8 | x8 | x8 || D,4 A,,4 | B,,4 F,,4 | G,,4 D,,4 | G,,4 A,,4 | x8 |] %65
V:4
 x8 | x8 | x8 | x8 || x8 | x8 | x8 | x8 | x8 | x8 | x8 | x8 || F4 C4 | D4 A,4 | B,4 A,4 | B,4 z4 || %16
 F4 C4 | x8 | B4 A4 | G4 C4 || x4 C4 | D4 C4 | B,4 F4 | D4 C4 || x8 | x8 | x8 | x8 || x8 | x8 | %30
 x8 | x8 || x8 | x8 | x8 | x8 || x8 | x8 | x8 | x8 || x8 | x8 | x8 | x8 || x8 | x8 | x8 | x8 || %48
 x8 | x8 | x8 | x8 || x8 | x8 | x8 | x8 || x8 | x8 | x8 | x8 || x8 | x8 | x8 | x4 (d'3 c') | x8 |] %65

